src/images/cardBrands/discover.svg

<?xml version="1.0" encoding="UTF-8"?>
<svg width="24px" height="16px" viewBox="0 0 24 16" version="1.1" xmlns="http://www.w3.org/2000/svg" xmlns:xlink="http://www.w3.org/1999/xlink">
    <g id="319" stroke="none" stroke-width="1" fill="none" fill-rule="evenodd">
        <g id="New-Icons" transform="translate(-280.000000, -280.000000)" fill-rule="nonzero">
            <g id="Card-Brands" transform="translate(40.000000, 200.000000)">
                <g id="Color" transform="translate(0.000000, 80.000000)">
                    <g id="Discover" transform="translate(240.000000, 0.000000)">
                        <path d="M21.9972414,15.749927 L21.999381,15.7499362 C22.9544683,15.7581106 23.73806,14.9772525 23.75,14.0041555 L23.7500083,2.00630219 C23.7461702,1.53568921 23.5588633,1.08617106 23.2297297,0.756801782 C22.9014319,0.428268884 22.4589161,0.246148853 21.9972414,0.250070854 L2.00063,0.250061791 C1.54108393,0.246148853 1.09856813,0.428268884 0.77027028,0.756801782 C0.441136651,1.08617106 0.253829819,1.53568921 0.25,2.00426336 L0.249991686,13.9936957 C0.253829819,14.4643086 0.441136651,14.9138268 0.77027028,15.2431961 C1.09856813,15.571729 1.54108393,15.753849 2.00275862,15.749927 L21.9972414,15.749927 Z M21.996203,16.249927 C21.9958359,16.249924 21.9954688,16.249921 21.9951018,16.2499178 L21.9972414,16.249927 L21.996203,16.249927 Z" id="shape" stroke-opacity="0.2" stroke="#000000" stroke-width="0.5" fill="#FFFFFF"></path>
                        <path d="M12.6124138,15.9999283 L21.9972414,15.9999283 C22.5240217,16.0043364 23.0309756,15.7992919 23.4065697,15.4299059 C23.7821638,15.06052 23.9956285,14.5570537 24,14.0302731 L24,11.6716524 C20.4561668,13.7059622 16.6127929,15.1667795 12.6124138,15.9999283 L12.6124138,15.9999283 Z" id="shape" fill="#F27712"></path>
                        <path d="M23.1724138,9.29647999 L22.32,9.29647999 L21.36,8.03027309 L21.2689655,8.03027309 L21.2689655,9.29647999 L20.5737931,9.29647999 L20.5737931,6.1516524 L21.6,6.1516524 C22.4027586,6.1516524 22.8662069,6.48268688 22.8662069,7.07854895 C22.8662069,7.56682481 22.5765517,7.88130757 22.0551724,7.98061792 L23.1724138,9.29647999 Z M22.1462069,7.10337654 C22.1462069,6.79716964 21.9144828,6.63992826 21.4841379,6.63992826 L21.2689655,6.63992826 L21.2689655,7.5916524 L21.4675862,7.5916524 C21.9144828,7.5916524 22.1462069,7.42613516 22.1462069,7.10337654 L22.1462069,7.10337654 Z M18.1406897,6.1516524 L20.1103448,6.1516524 L20.1103448,6.68130757 L18.8358621,6.68130757 L18.8358621,7.38475585 L20.0606897,7.38475585 L20.0606897,7.92268688 L18.8358621,7.92268688 L18.8358621,8.77510068 L20.1103448,8.77510068 L20.1103448,9.30475585 L18.1406897,9.30475585 L18.1406897,6.1516524 Z M15.9062069,9.37923861 L14.4,6.14337654 L15.1613793,6.14337654 L16.1131034,8.26199723 L17.0731034,6.14337654 L17.817931,6.14337654 L16.2951724,9.37923861 L15.9227586,9.37923861 L15.9062069,9.37923861 Z M9.60827586,9.37096274 C8.54896552,9.37096274 7.72137931,8.65096274 7.72137931,7.71579033 C7.72137931,6.8054455 8.56551724,6.06889378 9.62482759,6.06889378 C9.92275862,6.06889378 10.1710345,6.12682481 10.4772414,6.25923861 L10.4772414,6.98751447 C10.2453534,6.75969251 9.93335245,6.63192067 9.60827586,6.6316524 C8.9462069,6.6316524 8.44137931,7.1116524 8.44137931,7.71579033 C8.44137931,8.35303171 8.93793103,8.80820412 9.64137931,8.80820412 C9.95586207,8.80820412 10.1958621,8.70889378 10.4772414,8.46061792 L10.4772414,9.18889378 C10.1627586,9.32130757 9.89793103,9.37096274 9.60827586,9.37096274 L9.60827586,9.37096274 Z M7.5062069,8.33647999 C7.5062069,8.94889378 7.00137931,9.37096274 6.27310345,9.37096274 C5.74344828,9.37096274 5.36275862,9.18889378 5.04,8.77510068 L5.49517241,8.38613516 C5.65241379,8.66751447 5.91724138,8.80820412 6.24827586,8.80820412 C6.56275862,8.80820412 6.7862069,8.6178593 6.7862069,8.36958343 C6.7862069,8.22889378 6.72,8.12130757 6.57931034,8.03854895 C6.42504922,7.96369158 6.26441119,7.90275992 6.09931034,7.85647999 C5.44551724,7.64958343 5.22206897,7.42613516 5.22206897,6.98751447 C5.22206897,6.47441102 5.70206897,6.0854455 6.33103448,6.0854455 C6.72827586,6.0854455 7.08413793,6.20958343 7.38206897,6.44130757 L7.01793103,6.85510068 C6.87360928,6.69688076 6.66932728,6.60675635 6.45517241,6.60682481 C6.15724138,6.60682481 5.94206897,6.75579033 5.94206897,6.95441102 C5.94206897,7.11992826 6.0662069,7.21096274 6.48,7.3516524 C7.27448276,7.59992826 7.5062069,7.8316524 7.5062069,8.34475585 L7.5062069,8.33647999 Z M4.08827586,6.1516524 L4.78344828,6.1516524 L4.78344828,9.30475585 L4.08827586,9.30475585 L4.08827586,6.1516524 Z M1.8537931,9.30475585 L0.827586207,9.30475585 L0.827586207,6.1516524 L1.8537931,6.1516524 C2.97931034,6.1516524 3.75724138,6.79716964 3.75724138,7.72406619 C3.75724138,8.19579033 3.52551724,8.64268688 3.12,8.94061792 C2.77241379,9.18889378 2.38344828,9.30475585 1.84551724,9.30475585 L1.8537931,9.30475585 Z M2.66482759,6.9378593 C2.43310345,6.75579033 2.16827586,6.68958343 1.71310345,6.68958343 L1.52275862,6.68958343 L1.52275862,8.77510068 L1.71310345,8.77510068 C2.16,8.77510068 2.44137931,8.69234206 2.66482759,8.52682481 C2.90482759,8.32820412 3.04551724,8.03027309 3.04551724,7.72406619 C3.04551724,7.4178593 2.90482759,7.12820412 2.66482759,6.9378593 Z" id="shape" fill="#000000"></path>
                        <path d="M12.4137931,6.06889378 C11.5034483,6.06889378 10.7586207,6.79716964 10.7586207,7.69923861 C10.7586207,8.65923861 11.4703448,9.37923861 12.4137931,9.37923861 C13.3406897,9.37923861 14.0689655,8.65096274 14.0689655,7.72406619 C14.0689655,6.79716964 13.3489655,6.06889378 12.4137931,6.06889378 Z" id="shape" fill="#F27712"></path>
                    </g>
                </g>
            </g>
        </g>
    </g>
</svg>

<svg xmlns="http://www.w3.org/2000/svg" viewBox="0 0 24.00002 16"><path d="M21.99725,15.74993l.00214,0A1.75235,1.75235,0,0,0,23.75,14.00416l0-11.99786A1.7886,1.7886,0,0,0,23.22974.7568,1.71972,1.71972,0,0,0,21.99725.25007l-19.99661,0A1.71846,1.71846,0,0,0,.77028.7568,1.78737,1.78737,0,0,0,.25,2.00426l0,11.98944a1.78855,1.78855,0,0,0,.52028,1.2495,1.71971,1.71971,0,0,0,1.23249.50673Z" fill="#fff" stroke="#000" stroke-opacity="0.2" stroke-width="0.5"/><path d="M12.61242,15.99993h9.38483A1.9862,1.9862,0,0,0,24,14.03027V11.67165a38.73933,38.73933,0,0,1-11.38759,4.32828Z" fill="#f27712"/><path d="M23.17242,9.29648H22.32l-.96-1.26621h-.091V9.29648H20.5738V6.15165H21.6c.80276,0,1.26621.331,1.26621.9269a.87794.87794,0,0,1-.811.90207Zm-1.0262-2.1931c0-.30621-.23173-.46345-.66207-.46345H21.269v.95172h.19862c.4469,0,.67863-.16551.67863-.48827ZM18.1407,6.15165h1.96965v.52966H18.83587v.70345H20.0607v.53793H18.83587V8.7751h1.27448v.52966H18.1407ZM15.90622,9.37924,14.4,6.14338h.76138L16.11311,8.262l.96-2.11862h.74483L16.29518,9.37924h-.389ZM9.60828,9.371A1.75807,1.75807,0,0,1,7.72139,7.71579a1.78356,1.78356,0,0,1,1.90345-1.6469,2.01733,2.01733,0,0,1,.85241.19035v.72827a1.2414,1.2414,0,0,0-.869-.35586A1.09222,1.09222,0,1,0,9.64139,8.8082a1.17136,1.17136,0,0,0,.83586-.34758v.72827a2.12964,2.12964,0,0,1-.869.18207ZM7.50622,8.33648A1.09346,1.09346,0,0,1,6.27311,9.371,1.43824,1.43824,0,0,1,5.04,8.7751l.45517-.389a.81373.81373,0,0,0,.7531.42206.48138.48138,0,0,0,.53794-.43862.36607.36607,0,0,0-.2069-.331,2.87977,2.87977,0,0,0-.48-.18207c-.65379-.2069-.87724-.43034-.87724-.869a1.00148,1.00148,0,0,1,1.109-.90206,1.67987,1.67987,0,0,1,1.051.35586l-.36414.41379a.76141.76141,0,0,0-.56276-.24828c-.29793,0-.5131.149-.5131.34759,0,.16552.12414.25655.53793.39724.79448.24828,1.02621.48,1.02621.99311ZM4.08828,6.15165h.69518V9.30476H4.08828ZM1.8538,9.30476H.82759V6.15165H1.8538c1.12552,0,1.90345.64552,1.90345,1.57242A1.51132,1.51132,0,0,1,3.12,8.94062a2.059,2.059,0,0,1-1.27448.36414Zm.811-2.3669a1.40824,1.40824,0,0,0-.95173-.24828H1.52277V8.7751h.19034a1.50475,1.50475,0,0,0,.95173-.24828,1.0499,1.0499,0,0,0,.38069-.80275A1.00436,1.00436,0,0,0,2.66484,6.93786Z"/><path d="M12.4138,6.06889A1.65518,1.65518,0,1,0,14.069,7.72407,1.64426,1.64426,0,0,0,12.4138,6.06889Z" fill="#f27712"/></svg>
